material/.icons/material/eyedropper.svg

<svg xmlns="http://www.w3.org/2000/svg" viewBox="0 0 24 24"><path d="M19.35 11.72l-2.13 2.13-1.41-1.42-7.71 7.71L3.5 22 2 20.5l1.86-4.6 7.71-7.71-1.42-1.41 2.13-2.13 7.07 7.07M16.76 3A3 3 0 0121 3a3 3 0 010 4.24l-1.92 1.92-4.24-4.24L16.76 3M5.56 17.03L4.5 19.5l2.47-1.06L14.4 11 13 9.6l-7.44 7.43z"/></svg>

<?xml version="1.0" encoding="UTF-8"?><!DOCTYPE svg PUBLIC "-//W3C//DTD SVG 1.1//EN" "http://www.w3.org/Graphics/SVG/1.1/DTD/svg11.dtd"><svg xmlns="http://www.w3.org/2000/svg" xmlns:xlink="http://www.w3.org/1999/xlink" version="1.1" id="mdi-eyedropper" width="24" height="24" viewBox="0 0 24 24"><path d="M19.35,11.72L17.22,13.85L15.81,12.43L8.1,20.14L3.5,22L2,20.5L3.86,15.9L11.57,8.19L10.15,6.78L12.28,4.65L19.35,11.72M16.76,3C17.93,1.83 19.83,1.83 21,3C22.17,4.17 22.17,6.07 21,7.24L19.08,9.16L14.84,4.92L16.76,3M5.56,17.03L4.5,19.5L6.97,18.44L14.4,11L13,9.6L5.56,17.03Z" /></svg>
